X:6
T:Alko
C:Patrick Vaillant
L:1/8
M:6/8
K:Ab
 bag f=ef  | gaf g=eg  | f2f3f     | g=eg f2f  | 
 bag f=ef  | gaf g=eg  | f=ed cdB  | c=Ac B3   |
 bag f=ef  | gaf g=eg  | f=ed cde  | fg=e f2f  | 
 bag f=ef  | gaf g=eg  | f=ed cdB  | c=Ac B3   |
 edc B=AB  | cdB c=Ac  | B=A_G FGA | B2c3d     | 
 edc B=A_G | FE=D EF_G | =ABc de=e | f3 f3     |
 bag f=ef  | gaf g=eg  | f=ed cde  | fg=e f2f  | 
 =e6       | g6        | f=ed c=Ac | B6        |
K:F
 DG BG   | AG DG  | BG AG  | DG Bc   | _dB cA  | B2 FB   | BF B2  | AG G2     | 
 DG BG   | AG DG  | BG AF  | B4      | gf ed   | _dB AG  | d_d BA | G_G _ED   | 
 G,C _EC | DC G,C | _EC DC | G,C _EF | _G_E FD | _E2 B,E | EB, ED | _DB, A,G, | 
 DG BG   | AG DG  | BG AF  | B4      |
 (3gfe (3d_d=d | (3efd (3e_de | d4 | ag g2 |

